X:1
T:Title
%%score { 1 | 2 }
L:1/8
M:6/8
K:F
V:1 treble nm="Grand Piano"
V:2 bass 
V:1
 z3 z2[Q:1/4=90] C | A>BA [EG]>[EA][EG] | F3 A2 A | c>dc [EB]>[Ec][GB] |[M:5/8] A-A- A3 | %5
[M:1/8] C |[M:3/4] D>^C D[CE]- [CE]/[CD]/[CE] | [^CF]3 [CA]2 [=CFA] | %8
 [=B,FG]2 [B,FA] [B,FG]2 [B,FA] |[M:5/8] [B,EG]-[B,EG]- [B,EG]3 |[M:1/8] C |[M:3/4] A3 F2 C | %12
 A3 F2 C | [EB]3 G2 C | [EB]3 G2 C |[M:3/8] F>EF | [EG]>[DF][EG] | %17
[M:3/4] [CFA]>[CEG] [_EFA] [DFB]2 [Fd] | [Fc]>[Fd] [Fc] [FA]2 [EG] |[M:5/8] [CF]-[CF]- [CF]3 |] %20
V:2
 z3 z2 [F,A,] | [F,CF]>[F,DF][F,CF] [C,B,]>[C,C][C,B,] | [F,A,]3 [F,CF]2 [F,CF] | %3
 [F,A,F]>[F,B,F][F,A,F] [C,G,]>[C,G,][C,C] |[M:5/8] [F,CF]-[F,CF]- [F,CF]3 |[M:1/8] [F,A,] | %6
[M:3/4] [B,,F,B,]>[B,,F,B,] [B,,F,B,][B,,G,]- [B,,G,]/[B,,G,]/[B,,G,] | [A,,F,]3 [F,,F,]2 F, | %8
 D,2 D, D,2 G, |[M:5/8] C,-C,- C,3 |[M:1/8] E, |[M:3/4] [F,CF]3 [F,A,C]2 [F,A,] | %12
 [F,CF]3 [F,A,C]2 [F,A,] | [C,G,]3 [E,B,C]2 [E,B,] | [C,G,]3 [E,B,C]2 [E,B,] | %15
[M:3/8] [F,A,C]>[F,G,C][F,A,C] | [C,C]>[C,C][C,C] |[M:3/4] F,>C, F, B,,2 [B,,B,] | %18
 [C,A,]>[C,B,] [C,A,] [C,C]2 [C,B,] |[M:5/8] [F,A,]-[F,A,]- [F,A,]3 |] %20

